img/loupe-with-plus.svg

<svg fill="none" height="79" viewBox="0 0 81 79" width="81" xmlns="http://www.w3.org/2000/svg"><g fill="#fff"><path d="m0 0h25.1624v6.2906h-25.1624z" transform="matrix(-.72074 .693205 .72074 .693205 18.1355 57.1965)"/><path clip-rule="evenodd" d="m44.2696 65.7708c-16.2285 0-29.3843-13.0874-29.3843-29.2315s13.1558-29.23144 29.3843-29.23144 29.3843 13.08734 29.3843 29.23144-13.1558 29.2315-29.3843 29.2315zm0 7.3078c-20.2856 0-36.73037-16.3592-36.73037-36.5393s16.44477-36.5393 36.73037-36.5393 36.7304 16.3592 36.7304 36.5393-16.4448 36.5393-36.7304 36.5393z" fill-rule="evenodd"/><path d="m42 24v25h5.9954l.0001-25z"/><path d="m57.2336 34h-25v5.9954l25 .0001z"/></g></svg>

<svg width="81" height="79" viewBox="0 0 81 79" fill="none" xmlns="http://www.w3.org/2000/svg">
<rect width="25.1624" height="6.2906" transform="matrix(-0.72074 0.693205 0.72074 0.693205 18.1355 57.1965)" fill="white"/>
<path fill-rule="evenodd" clip-rule="evenodd" d="M44.2696 65.7708C28.0411 65.7708 14.8853 52.6834 14.8853 36.5393C14.8853 20.3952 28.0411 7.30786 44.2696 7.30786C60.4981 7.30786 73.6539 20.3952 73.6539 36.5393C73.6539 52.6834 60.4981 65.7708 44.2696 65.7708ZM44.2696 73.0786C23.984 73.0786 7.53923 56.7194 7.53923 36.5393C7.53923 16.3592 23.984 0 44.2696 0C64.5552 0 81 16.3592 81 36.5393C81 56.7194 64.5552 73.0786 44.2696 73.0786Z" fill="white"/>
<path d="M42 24L42 49L47.9954 49L47.9955 24L42 24Z" fill="white"/>
<path d="M57.2336 34L32.2336 34L32.2336 39.9954L57.2336 39.9955L57.2336 34Z" fill="white"/>
</svg>
